dist/svgs/core-ui-icons/brand/cib-automatic.svg

<svg xmlns="http://www.w3.org/2000/svg" width="32" height="32" viewBox="0 0 32 32">
  <path d="M16 9.026v-1.651c-0.646 0.047-1.005 0.391-1.318 0.948l-6.854 13.969h3.286l-1.005-1.276 0.87-1.818 0.005 0.005 5.016-10.172zM14.036 17.495h3.927l-1.964-4.063zM10.979 19.219h0.021l-0.016-0.016zM17.964 17.495v0.005zM28.661 6.755l-10.979-6.344c-0.927-0.536-2.438-0.536-3.365 0l-10.979 6.344c-0.922 0.531-1.682 1.839-1.682 2.906v12.677c0 1.073 0.76 2.375 1.682 2.906l10.979 6.344c0.927 0.536 2.438 0.536 3.365 0l10.979-6.354c0.922-0.521 1.677-1.844 1.677-2.901v-12.672c0-1.068-0.755-2.375-1.677-2.906zM20.573 22.823l-0.917-1.849h-7.333l-0.896 1.849h-4.38l7.198-14.714c0.406-0.807 1.036-1.198 1.755-1.198s1.38 0.438 1.755 1.187l7.193 14.724zM16 9.026v3.297l3.359 6.901h-8.359l1.010 1.25h7.964l0.896 1.802h3.302l-2.276-1.318v0.052l-5.896-11.984z"/>
</svg>

<svg xmlns="http://www.w3.org/2000/svg" viewBox="0 0 32 32"><path d="M16 9.026V7.375c-.646.047-1.005.391-1.318.948L7.828 22.292h3.286l-1.005-1.276.87-1.818.005.005L16 9.031zm-1.964 8.469h3.927l-1.964-4.063zm-3.057 1.724H11l-.016-.016zm6.985-1.724v.005zm10.697-10.74L17.682.411c-.927-.536-2.438-.536-3.365 0L3.338 6.755c-.922.531-1.682 1.839-1.682 2.906v12.677c0 1.073.76 2.375 1.682 2.906l10.979 6.344c.927.536 2.438.536 3.365 0l10.979-6.354c.922-.521 1.677-1.844 1.677-2.901V9.661c0-1.068-.755-2.375-1.677-2.906zm-8.088 16.068l-.917-1.849h-7.333l-.896 1.849h-4.38l7.198-14.714c.406-.807 1.036-1.198 1.755-1.198s1.38.438 1.755 1.187l7.193 14.724zM16 9.026v3.297l3.359 6.901H11l1.01 1.25h7.964l.896 1.802h3.302l-2.276-1.318v.052L16 9.026z"/></svg>
